lib/brands/logos/beyond-trust.svg

<svg xmlns="http://www.w3.org/2000/svg" fill="none" aria-hidden="true" viewBox="0 0 212 56"><g id="BeyondTrust"><g id="Union"><path fill="#FF5500" fill-rule="evenodd" d="M19.0152 17.5965C18.8942 17.5965 18.7945 17.4968 18.7945 17.3758V5.32266C18.7945 5.27995 18.766 5.23723 18.7305 5.22299C18.6877 5.20163 18.6379 5.21587 18.6094 5.24435L14.5229 9.33088C14.3734 9.48038 14.2381 9.80076 14.2381 10.0072V22.0461C14.2381 22.1102 14.288 22.16 14.352 22.16H28.8186C28.9397 22.16 29.0393 22.2597 29.0393 22.3807V24.5379C29.0393 24.8511 28.783 25.1074 28.4698 25.1074H14.352C14.3236 25.1074 14.2951 25.1217 14.2737 25.143C14.2524 25.1644 14.2381 25.1929 14.2381 25.2214V40.585C14.2381 42.3506 15.6762 43.7887 17.4418 43.7887H28.4698C28.783 43.7887 29.0393 44.045 29.0393 44.3583V46.5226C29.0393 46.6436 28.9397 46.7433 28.8186 46.7433H17.4418C14.0459 46.7433 11.2836 43.9809 11.2836 40.585V12.8336C11.2836 12.7909 11.2551 12.7482 11.2195 12.7339C11.1768 12.7126 11.1269 12.7268 11.0985 12.7553L7.01194 16.8418C6.86243 16.9913 6.73428 17.3117 6.73428 17.5182V41.9163C6.73428 47.0921 10.9418 51.2997 16.1105 51.2997H33.4961C33.5601 51.2997 33.61 51.2498 33.61 51.1858L33.6242 17.7246C33.6242 17.6606 33.5601 17.6036 33.5032 17.6036H19.0152V17.5965ZM29.0393 30.2334V38.6556C29.0393 38.9689 28.783 39.2252 28.4698 39.2252H19.0437C18.9227 39.2252 18.823 39.1255 18.823 39.0045V30.2334C18.823 29.9201 19.0793 29.6638 19.3926 29.6638H28.4769C28.7901 29.6638 29.0393 29.9201 29.0393 30.2334Z" clip-rule="evenodd"/><path fill="#FF5500" d="M40.8507 24.1036L36.7642 20.0171C36.7286 19.9815 36.6859 19.9744 36.6431 19.9957C36.6004 20.01 36.5791 20.0527 36.5791 20.0954V48.7865C36.5791 48.8292 36.6075 48.872 36.6431 48.8862C36.6574 48.8933 36.6716 48.8933 36.6859 48.8933C36.7143 48.8933 36.7428 48.8791 36.7642 48.8577L40.8507 44.7712C41.0002 44.6217 41.1284 44.3084 41.1284 44.0948V24.7871C41.1284 24.5735 41.0002 24.2531 40.8507 24.1036Z"/><path fill="#FF5500" fill-rule="evenodd" d="M135.225 31.2372C134.072 30.3544 132.868 29.8988 131.58 29.8988C129.736 29.8988 128.155 30.5965 126.895 31.9847C125.607 33.4015 124.966 35.1457 124.966 37.2602C124.966 39.218 125.528 40.8199 126.682 42.1085C127.807 43.4185 129.195 44.0663 130.861 44.0663C132.577 44.0663 133.943 43.3971 135.303 41.8736V43.8029H139.269V23.5055L135.225 24.5735V31.2372ZM135.225 39.6238C134.129 40.3714 133.217 40.6704 132.256 40.6704C130.298 40.6704 128.91 39.1967 128.91 37.0324C128.91 34.8111 130.384 33.2805 132.498 33.2805C133.459 33.2805 134.292 33.494 135.232 34.028V39.6238H135.225Z" clip-rule="evenodd"/><path fill="#FF5500" d="M140.365 25.0576H158.064V28.9376H151.372V43.7958H147.057V28.9376H140.365V25.0576Z"/><path fill="#FF5500" d="M202.511 40.6633C203.365 40.6633 204.141 40.3429 205.187 39.5669L205.266 39.6238L204.646 43.1551C203.607 43.7744 202.404 44.0948 201.115 44.0948C198.089 44.0948 196.459 42.3007 196.459 38.8977V33.2734H194.373V30.1123H196.459V27.1934L200.446 26.2038V30.1123H205.187V33.2734H200.446V38.5488C200.446 39.9442 201.144 40.6633 202.511 40.6633Z"/><path fill="#FF5500" d="M189.524 35.3878C188.321 35.0959 187.545 34.8254 187.168 34.6118C186.79 34.4267 186.605 34.1561 186.605 33.8073C186.605 33.195 187.303 32.7892 188.456 32.7892C189.873 32.7892 191.724 33.4015 193.326 34.448L193.404 34.4196V30.9951C191.931 30.2191 190.322 29.8204 188.613 29.8204C185.103 29.8204 182.861 31.5077 182.861 34.0778C182.861 36.1923 184.064 37.3741 187.623 38.3067C188.827 38.6271 189.631 38.8977 190.037 39.1112C190.436 39.3248 190.628 39.6167 190.628 39.994C190.628 40.6348 189.88 41.0904 188.727 41.0904C186.826 41.0904 184.683 40.2859 182.626 38.8692L182.547 38.919L183.081 42.5855C184.818 43.632 186.534 44.0877 188.492 44.0877C190.258 44.0877 191.682 43.689 192.778 42.8845C193.853 42.1085 194.387 41.0619 194.387 39.7805C194.387 38.6271 194.038 37.7443 193.34 37.0751C192.628 36.4059 191.375 35.8434 189.524 35.3878Z"/><path fill="#FF5500" d="M177.422 39.218C176.268 40.1791 175.464 40.5564 174.474 40.5564C173.001 40.5564 172.196 39.6167 172.196 37.9864V30.1123H168.124V38.8122C168.124 42.0515 169.918 44.0877 172.73 44.0877C174.659 44.0877 176.048 43.2547 177.521 41.3325V43.7958H181.458V30.1123H177.415V39.218H177.422Z"/><path fill="#FF5500" d="M165.987 29.8987C164.514 29.8987 163.389 30.81 161.488 33.4869V29.9272L157.522 30.4327V43.7958H161.595V35.7936C163.332 34.6118 164.677 34.1348 166.144 34.1348C166.493 34.1348 166.785 34.1348 167.112 34.2131L166.87 30.0127C166.472 29.9272 166.286 29.8987 165.987 29.8987Z"/><path fill="#FF5500" d="M119.106 29.792C117.255 29.792 115.81 30.6249 114.344 32.5472V29.9201L110.378 30.4256V43.7887H114.45V34.6687C115.604 33.7076 116.38 33.3588 117.369 33.3588C118.843 33.3588 119.669 34.2985 119.669 35.9004V43.7958H123.713V35.0674C123.713 31.8281 121.919 29.792 119.106 29.792Z"/><path fill="#FF5500" fill-rule="evenodd" d="M101.756 29.7421C99.642 29.7421 97.8763 30.4398 96.4525 31.8281C95.0357 33.2449 94.338 34.9606 94.338 36.9683C94.338 39.0045 95.0357 40.7131 96.424 42.08C97.7909 43.4754 99.5565 44.166 101.728 44.166C103.842 44.166 105.608 43.4683 107.032 42.0516C108.449 40.6348 109.146 38.919 109.146 36.9114C109.146 34.8752 108.449 33.1594 107.082 31.7996C105.693 30.4398 103.928 29.7421 101.756 29.7421ZM101.735 40.7202C99.7772 40.7202 98.2822 39.1112 98.2822 36.9754C98.2822 34.804 99.7274 33.2022 101.764 33.2022C103.771 33.2022 105.216 34.7827 105.216 36.9256C105.209 39.0828 103.743 40.7202 101.735 40.7202Z" clip-rule="evenodd"/><path fill="#FF5500" d="M90.8356 30.1123L87.7529 38.7054L84.3783 30.1123H79.9856L85.6882 43.2333C85.0688 44.7071 84.186 45.3478 82.7195 45.3478C81.9719 45.3478 81.2742 45.1627 80.4412 44.7355L80.3914 44.7854L81.1674 48.4803C81.915 48.8007 82.6696 48.936 83.5239 48.936C86.3361 48.936 88.3438 47.327 89.6537 43.931L95.1428 30.1123H90.8356Z"/><path fill="#FF5500" fill-rule="evenodd" d="M75.2509 40.9053C73.0296 40.9053 71.5559 39.8588 71.1287 38.0433H80.5762C80.5876 37.8608 80.6024 37.6737 80.6161 37.5012L80.6162 37.5L80.6163 37.4989C80.6367 37.2419 80.6545 37.0176 80.6545 36.89C80.6545 34.7471 80.0636 33.0099 78.9174 31.6928C77.7427 30.3829 76.1622 29.735 74.1545 29.735C72.1468 29.735 70.5094 30.4327 69.1994 31.7996C67.8894 33.195 67.2202 34.9037 67.2202 36.9114C67.2202 39.0828 67.8894 40.8199 69.2279 42.1299C70.5378 43.4398 72.3034 44.0806 74.5318 44.0806C76.2689 44.0806 77.6145 43.7887 79.2449 43.0127L80.3412 39.6096L80.2629 39.5526C78.5187 40.4497 76.8812 40.9053 75.2509 40.9053ZM74.0691 32.6611C75.6496 32.6611 76.689 33.8358 76.8812 35.7438H71.1003C71.3138 33.8927 72.4672 32.6611 74.0691 32.6611Z" clip-rule="evenodd"/><path fill="#FF5500" fill-rule="evenodd" d="M62.9062 34.028C64.6219 33.1452 65.5546 31.7284 65.5546 30.0127C65.5546 26.9086 63.1981 25.0576 59.2326 25.0576H52.2983V43.8029H59.261C61.3755 43.8029 63.0913 43.3188 64.3728 42.3292C65.6329 41.3681 66.2736 40.051 66.2736 38.4206C66.2808 36.3774 65.1274 34.8538 62.9062 34.028ZM58.9478 40.4782H56.4062V35.7936H58.841C60.9056 35.7936 62.0518 36.6266 62.0518 38.1501C62.0518 39.5669 60.87 40.4782 58.9478 40.4782ZM56.3991 28.3752H58.7271C60.4144 28.3752 61.4325 29.1512 61.4325 30.5181C61.4325 31.9135 60.3076 32.8177 58.5705 32.8177H56.3991V28.3752Z" clip-rule="evenodd"/></g></g></svg>

<svg xmlns="http://www.w3.org/2000/svg" fill="none" aria-hidden="true" viewBox="0 0 212 56"><path fill="#F50" fill-rule="evenodd" d="M19.015 17.596c-.12 0-.22-.1-.22-.22V5.323a.112.112 0 0 0-.065-.1.107.107 0 0 0-.12.021l-4.087 4.087c-.15.15-.285.47-.285.676v12.04c0 .063.05.113.114.113H28.82c.12 0 .22.1.22.22v2.158c0 .313-.256.57-.57.57H14.353a.115.115 0 0 0-.078.035.115.115 0 0 0-.036.078v15.364a3.209 3.209 0 0 0 3.204 3.204H28.47c.313 0 .57.256.57.57v2.164c0 .12-.1.22-.221.22H17.442a6.165 6.165 0 0 1-6.158-6.158V12.834a.112.112 0 0 0-.065-.1.107.107 0 0 0-.12.021l-4.087 4.087c-.15.15-.278.47-.278.676v24.398c0 5.176 4.208 9.384 9.376 9.384h17.386c.064 0 .114-.05.114-.114l.014-33.461c0-.064-.064-.121-.12-.121h-14.49v-.008ZM29.04 30.233v8.423c0 .313-.256.57-.57.57h-9.425a.222.222 0 0 1-.221-.221v-8.772c0-.313.256-.57.57-.57h9.084c.313 0 .562.257.562.57Z" clip-rule="evenodd"/><path fill="#F50" d="m40.85 24.104-4.086-4.087c-.035-.035-.078-.043-.12-.021-.044.014-.065.057-.065.1v28.69c0 .043.029.086.064.1a.114.114 0 0 0 .121-.029l4.087-4.086c.15-.15.277-.463.277-.676V24.787c0-.213-.128-.534-.277-.683Z"/><path fill="#F50" fill-rule="evenodd" d="M135.225 31.237c-1.153-.883-2.357-1.338-3.645-1.338-1.844 0-3.425.697-4.685 2.086-1.288 1.416-1.929 3.16-1.929 5.275 0 1.958.562 3.56 1.716 4.849 1.125 1.31 2.513 1.957 4.179 1.957 1.716 0 3.082-.669 4.442-2.192v1.929h3.966V23.506l-4.044 1.067v6.664Zm0 8.387c-1.096.747-2.008 1.046-2.969 1.046-1.958 0-3.346-1.473-3.346-3.638 0-2.22 1.474-3.751 3.588-3.751.961 0 1.794.213 2.734.747v5.596h-.007Z" clip-rule="evenodd"/><path fill="#F50" d="M140.365 25.058h17.699v3.88h-6.692v14.858h-4.315V28.938h-6.692v-3.88Zm62.146 15.605c.854 0 1.63-.32 2.676-1.096l.079.057-.62 3.531c-1.039.62-2.242.94-3.531.94-3.026 0-4.656-1.794-4.656-5.197v-5.625h-2.086v-3.16h2.086v-2.92l3.987-.99v3.91h4.741v3.16h-4.741v5.276c0 1.395.698 2.114 2.065 2.114Zm-12.987-5.275c-1.203-.292-1.979-.563-2.356-.776-.377-.185-.563-.456-.563-.805 0-.612.698-1.018 1.851-1.018 1.417 0 3.268.612 4.87 1.659l.078-.028v-3.425a10.167 10.167 0 0 0-4.791-1.175c-3.51 0-5.752 1.688-5.752 4.258 0 2.114 1.203 3.296 4.762 4.229 1.204.32 2.008.59 2.414.804.399.214.591.506.591.883 0 .64-.748 1.096-1.901 1.096-1.901 0-4.044-.804-6.101-2.22l-.079.049.534 3.667c1.737 1.046 3.453 1.502 5.411 1.502 1.766 0 3.19-.399 4.286-1.203 1.075-.776 1.609-1.823 1.609-3.104 0-1.154-.349-2.037-1.047-2.706-.712-.67-1.965-1.232-3.816-1.687Zm-12.102 3.83c-1.154.961-1.958 1.338-2.948 1.338-1.473 0-2.278-.94-2.278-2.57v-7.874h-4.072v8.7c0 3.24 1.794 5.276 4.606 5.276 1.929 0 3.318-.833 4.791-2.755v2.463h3.937V30.112h-4.043v9.106h.007Zm-11.435-9.319c-1.473 0-2.598.911-4.499 3.588v-3.56l-3.966.506v13.363h4.073v-8.002c1.737-1.182 3.082-1.66 4.549-1.66.349 0 .641 0 .968.08l-.242-4.201c-.398-.086-.584-.114-.883-.114Zm-46.881-.107c-1.851 0-3.296.833-4.762 2.755V29.92l-3.966.506v13.363h4.072v-9.12c1.154-.961 1.93-1.31 2.919-1.31 1.474 0 2.3.94 2.3 2.541v7.896h4.044v-8.729c0-3.239-1.794-5.275-4.607-5.275Z"/><path fill="#F50" fill-rule="evenodd" d="M101.756 29.742c-2.114 0-3.88.698-5.303 2.086-1.417 1.417-2.115 3.133-2.115 5.14 0 2.036.698 3.745 2.086 5.112 1.367 1.395 3.133 2.086 5.304 2.086 2.114 0 3.88-.698 5.304-2.114 1.417-1.417 2.114-3.133 2.114-5.14 0-2.037-.697-3.753-2.064-5.112-1.389-1.36-3.154-2.058-5.326-2.058Zm-.021 10.978c-1.958 0-3.453-1.609-3.453-3.745 0-2.171 1.445-3.773 3.482-3.773 2.007 0 3.452 1.58 3.452 3.724-.007 2.157-1.473 3.794-3.481 3.794Z" clip-rule="evenodd"/><path fill="#F50" d="m90.836 30.112-3.083 8.593-3.375-8.593h-4.392l5.702 13.121c-.62 1.474-1.502 2.115-2.969 2.115-.747 0-1.445-.185-2.278-.612l-.05.05.776 3.694c.748.32 1.503.456 2.357.456 2.812 0 4.82-1.609 6.13-5.005l5.489-13.819h-4.307Z"/><path fill="#F50" fill-rule="evenodd" d="M75.25 40.905c-2.22 0-3.694-1.046-4.121-2.862h9.447c.012-.182.027-.37.04-.542V37.5c.02-.257.038-.481.038-.609 0-2.143-.59-3.88-1.737-5.197-1.174-1.31-2.755-1.958-4.763-1.958-2.007 0-3.645.698-4.955 2.065-1.31 1.395-1.979 3.104-1.979 5.111 0 2.172.67 3.909 2.008 5.219 1.31 1.31 3.076 1.95 5.304 1.95 1.737 0 3.083-.291 4.713-1.067l1.096-3.403-.078-.057c-1.744.897-3.382 1.352-5.012 1.352Zm-1.18-8.244c1.58 0 2.619 1.175 2.811 3.083h-5.78c.213-1.851 1.366-3.083 2.968-3.083Zm-11.164 1.367c1.716-.883 2.649-2.3 2.649-4.015 0-3.104-2.357-4.955-6.322-4.955h-6.935v18.745h6.963c2.114 0 3.83-.484 5.112-1.474 1.26-.96 1.9-2.278 1.9-3.908.008-2.044-1.145-3.567-3.367-4.393Zm-3.958 6.45h-2.542v-4.684h2.435c2.065 0 3.21.833 3.21 2.356 0 1.417-1.18 2.328-3.103 2.328Zm-2.549-12.103h2.328c1.687 0 2.706.776 2.706 2.143 0 1.395-1.125 2.3-2.862 2.3h-2.172v-4.443Z" clip-rule="evenodd"/></svg>
